X:1510
T:Scotch Mary
R:reel
N:"collected from F. O'Neill"
B:"O'Neill's Dance Music of Ireland, 1510"
T: maire albana.c.
Z:transcribed by John B. Walsh, walsh@math.ubc.ca 8/23/96
M:C|
L:1/8
K:Ador
(AB)|c(E"~"E2) cded|cEEF G2(AB)|c(E"~"E2) cded|cAB^G A2 (AB)|
c(E"~"E2) cded|cEEF G2(AB)|cEEG cded|cAB^G A2||
(^cd)|eaa^g efed|^cdef g2 fg|eaa^g efed|cAB^G A2 (^cd)|
eaa^g efed|^cdef g2 (fg)|afge fded|cAB^G A2||


